src/icon/banking/card-add/icon_card-add_xl_white.svg

<svg width="36px" height="36px" viewBox="0 0 36 36" version="1.1" xmlns="http://www.w3.org/2000/svg"><g transform="translate(-197.000000, -185.000000) translate(197.000000, 185.000000)" stroke="none" stroke-width="1" fill="none" fill-rule="evenodd"><polygon points="0 0 36 0 36 36 0 36"/><path d="M4.84787941,20.0089575 L10.8478794,20.0089575 L10.8478794,23.0089575 L4.84787941,23.0089575 L4.84787941,20.0089575 Z M1.98205874,11.0062596 L33.9820587,11.0062596 L33.9820587,14.9783274 L2.00065926,15 L1.98205874,11.0062596 Z" fill="#FFFFFF" fill-rule="nonzero" opacity="0.3"/><path d="M34,15.0115239 L34,7.28571429 C34,5.47106439 32.4447786,4 30.5263158,4 L4.47368421,4 C2.5552214,4 1,5.47106439 1,7.28571429 L1,23.7142857 C1,25.5289356 2.5552214,27 4.47368421,27 L21.810471,27 L21.810471,26 L4.47368421,26 C3.09544945,26 2,24.9638281 2,23.7142857 L2,7.28571429 C2,6.03617188 3.09544945,5 4.47368421,5 L30.5263158,5 C31.9045505,5 33,6.03617188 33,7.28571429 L33,15.0115239 L34,15.0115239 Z M34,7.28571429 C34,5.47106439 32.4447786,4 30.5263158,4 L4.47368421,4 C2.5552214,4 1,5.47106439 1,7.28571429 L1,23.7142857 C1,25.5289356 2.5552214,27 4.47368421,27 L21.810471,27 L21.810471,26 L4.47368421,26 C3.09544945,26 2,24.9638281 2,23.7142857 L2,7.28571429 C2,6.03617188 3.09544945,5 4.47368421,5 L30.5263158,5 C31.9045505,5 33,6.03617188 33,7.28571429 L33,15.0115239 L34,15.0115239 L34,7.28571429 Z" fill="#FFFFFF" fill-rule="nonzero"/><polygon fill="#FFFFFF" points="30 29 30 24 35 24 35 23 30 23 30 18 29 18 29 23 24 23 24 24 29 24 29 29"/></g></svg>

<svg width="36" height="36" viewBox="0 0 36 36" xmlns="http://www.w3.org/2000/svg"><g fill="none" fill-rule="evenodd"><path d="M0 0h36v36H0z"/><path d="M4.848 20.009h6v3h-6v-3zm-2.866-9.003h32v3.972L2.001 15l-.019-3.994z" fill="#FFF" fill-rule="nonzero" opacity=".3"/><path d="M34 15.012V7.286C34 5.47 32.445 4 30.526 4H4.474C2.555 4 1 5.471 1 7.286v16.428C1 25.53 2.555 27 4.474 27H21.81v-1H4.474C3.095 26 2 24.964 2 23.714V7.286C2 6.036 3.095 5 4.474 5h26.052C31.905 5 33 6.036 33 7.286v7.726h1zm0-7.726C34 5.47 32.445 4 30.526 4H4.474C2.555 4 1 5.471 1 7.286v16.428C1 25.53 2.555 27 4.474 27H21.81v-1H4.474C3.095 26 2 24.964 2 23.714V7.286C2 6.036 3.095 5 4.474 5h26.052C31.905 5 33 6.036 33 7.286v7.726h1V7.286z" fill="#FFF" fill-rule="nonzero"/><path fill="#FFF" d="M30 29v-5h5v-1h-5v-5h-1v5h-5v1h5v5z"/></g></svg>
